!!!COM: Webern, Anton (Friedrich Wilhelm von)
!!!OTL: Concerto for Nine Instruments, op. 24
!!!OMV: Movement 1
!!!example: 415
!!!work: Web-28
!!!OMD-full: Etwas lebhaft
!!!OMD: [Etwas lebhaft]
**kern	**dynam	**kern	**dynam	**kern	**dynam	**kern	**dynam	**kern	**dynam	**kern	**dynam	**kern	**dynam	**kern	**dynam	**kern	**dynam	**kern	**dynam
*grp:A	*grp:A	*grp:A	*grp:A	*grp:A	*grp:A	*grp:A	*grp:A	*grp:B	*grp:B	*grp:A	*grp:A	*grp:A	*grp:A	*grp:A	*grp:A	*grp:A	*grp:A	*grp:A	*grp:A
*part9	*part9	*part9	*part9	*part8	*part8	*part7	*part7	*part6	*part6	*part5	*part5	*part4	*part4	*part3	*part3	*part2	*part2	*part1	*part1
*staff10	*	*staff9	*	*staff8	*	*staff7	*	*staff6	*	*staff5	*	*staff4	*	*staff3	*	*staff2	*	*staff1	*
*I"Piano	*	*	*	*I"Viola	*	*I"Violin I	*	*I"Trombone	*	*I"Trumpet in Bb	*	*I"Horn in F	*	*I"Clarinet in Bb	*	*I"Oboe	*	*I"Flute	*
*I'Pno.	*	*	*	*I'Vla.	*	*I'Vln. I	*	*I'Tbn.	*	*I'Tpt.	*	*I'Hn.	*	*I'Cl.	*	*I'Ob.	*	*I'Fl.	*
*clefF4	*	*clefG2	*	*clefC3	*	*clefG2	*	*clefF4	*	*clefG2	*	*clefG2	*	*clefG2	*	*clefG2	*	*clefG2	*
*k[]	*	*k[]	*	*k[]	*	*k[]	*	*k[]	*	*k[]	*	*	*	*k[]	*	*k[]	*	*k[]	*
*M2/4	*	*M2/4	*	*M2/4	*	*M2/4	*	*M2/4	*	*M2/4	*	*M2/4	*	*M2/4	*	*M2/4	*	*M2/4	*
*MM80	*	*MM80	*	*MM80	*	*MM80	*	*MM80	*	*MM80	*	*MM80	*	*MM80	*	*MM80	*	*MM80	*
=11	=11	=11	=11	=11	=11	=11	=11	=11	=11	=11	=11	=11	=11	=11	=11	=11	=11	=11	=11
!	!	!LO:TX:t=[quarter]=80	!	!LO:TX:t=mit Dmpf.	!	!LO:TX:t=mit Dmpf.	!	!	!	!	!LO:DY:ed=brack	!	!	!	!	!	!	!LO:TX:t=[quarter]=80	!
!	!	!	!	!	!	!	!	!	!	!LO:TX:t=P:problem: this slur needs to be changed to a hanging slur	!	!	!	!	!	!	!	!	!
4r	.	2r	.	2r	.	2r	.	2r	.	(8ff#XL	.f	2r	.	8r	.	2r	.	2r	.
.	.	.	.	.	.	.	.	.	.	8ddJ)	.	.	.	8ccc#X~	f	.	.	.	.
8r	.	.	.	.	.	.	.	.	.	4r	.	.	.	(4an	>]	.	.	.	.
!	!	!	!LO:DY:b	!	!	!	!	!	!	!	!	!	!	!	!	!	!	!	!
8EE-X	fp	.	.	.	.	.	.	.	.	.	.	.	.	.	.	.	.	.	.
=12	=12	=12	=12	=12	=12	=12	=12	=12	=12	=12	=12	=12	=12	=12	=12	=12	=12	=12	=12
!	!	!LO:TX:a:B:t=rit. - - - - - - - - -	!	!	!	!LO:TX:t=arco	!	!	!	!	!	!	!	!	!	!	!	!LO:TX:a:B:t=rit. - - - - - - - - -	!
*clefG2	*	*	*	*	*	*	*	*	*	*	*	*	*	*	*	*	*	*	*
!	!	!LO:TX:t=P:problem: spacing for piano staves is too wide	!	!	!	!	!	!	!	!	!	!	!	!	!	!	!	!	!
4	.	(4Gn 4f#X	.	4r	.	8aa-X~	p	2r	.	2r	.	2r	.	8B-X)	p	2r	.	2r	.
!	!	!	!	!LO:TX:t=arco	!	!	!	!	!	!	!	!	!	!	!	!	!	!	!
.	.	.	.	.	.	(4cn	>	.	.	.	.	.	.	8r	.	.	.	.	.
8	.	8b<n')	.	8r	.	.	.	.	.	.	.	.	.	4r	.	.	.	.	.
8r	.	8r	.	8een~	p	8bn)	]	.	.	.	.	.	.	.	.	.	.	.	.
*clefF4	*	*clefF4	*	*	*	*	*	*	*	*	*	*	*	*	*	*	*	*	*
=13	=13	=13	=13	=13	=13	=13	=13	=13	=13	=13	=13	=13	=13	=13	=13	=13	=13	=13	=13
!	!	!LO:TX:B:t=sehr mäßig [quarter]= 50	!	!	!	!	!	!	!	!	!	!	!	!	!	!	!	!LO:TX:B:t=sehr mäßig [quarter]= 50	!
(8D>L 8B-X>	.	8	pp	(4e-X	>	2r	.	2r	.	2r	.	2r	.	2r	.	4r	.	2r	.
8C#X 8cn	<	8	.	.	.	.	.	.	.	.	.	.	.	.	.	.	.	.	.
*	*	*clefG2	*	*	*	*	*	*	*	*	*	*	*	*	*	*	*	*	*
8an> 8gg#X>	[>	8	.	8Gn)	]	.	.	.	.	.	.	.	.	.	.	(8enL	p	.	.
!	!	!	!	!	!	!	!	!	!	!	!	!	!	!	!	!LO:TX:t=P:problem: all over the bar line beaming needs to be added	!	!	!
8Fn 8enJ)	]	8	.	8r	.	.	.	.	.	.	.	.	.	.	.	8gg#X'J)	.	.	.
=14	=14	=14	=14	=14	=14	=14	=14	=14	=14	=14	=14	=14	=14	=14	=14	=14	=14	=14	=14
*clefG2	*	*	*	*	*	*	*	*	*	*	*	*	*	*	*	*	*	*	*
8r	.	4r	.	2r	.	4r	.	2r	.	2r	.	(4ccn	p	2r	.	8gn~	.	2r	.
(8d#XL	.	.	.	.	.	.	.	.	.	.	.	.	.	.	.	8r	.	.	.
8G>) 8e>-XJ	.	8	.	.	.	8r	.	.	.	.	.	8BnL	>	.	.	4r	.	.	.
8r	.	8r	.	.	.	8ccc#X~	fp	.	.	.	.	8e-XJ)	]]	.	.	.	.	.	.
*	*	*clefF4	*	*clefG2	*	*	*	*	*	*	*	*	*	*	*	*	*	*	*
=15	=15	=15	=15	=15	=15	=15	=15	=15	=15	=15	=15	=15	=15	=15	=15	=15	=15	=15	=15
(8ddnL	.	2r	p	4r	.	8r	.	2r	.	2r	.	2r	.	2r	.	2r	.	2r	.
8BB>nJ) 8B-X>	.	.	.	.	.	(8ddn~L	.	.	.	.	.	.	.	.	.	.	.	.	.
8r	.	.	.	(8anL	p	8B-X~J)	.	.	.	.	.	.	.	.	.	.	.	.	.
8an~	.	.	.	8ffnJ)	.	8r	.	.	.	.	.	.	.	.	.	.	.	.	.
*	*	*	*	*clefC3	*	*	*	*	*	*	*	*	*	*	*	*	*	*	*
=16	=16	=16	=16	=16	=16	=16	=16	=16	=16	=16	=16	=16	=16	=16	=16	=16	=16	=16	=16
(8C#X>L 8cn>	.	4	.	8F#X~	.	2r	.	2r	.	4r	.	4r	.	2r	.	(8enL	p	2r	.
*clefF4	*	*	*	*	*	*	*	*	*	*	*	*	*	*	*	*	*	*	*
8F#X 8en)	.	.	.	8r	.	.	.	.	.	.	.	.	.	.	.	8gg#X')	.	.	.
*	*	*clefG2	*	*	*	*	*	*	*	*	*	*	*	*	*	*	*	*	*
8gg#>XJ~	.	8	.	4r	.	.	.	.	.	4r	.	(8ccnL	p	.	.	8gn~J	.	.	.
.	.	.	.	.	.	.	.	.	.	.	.	.	.	.	.	.	.	.	.
8r	.	8r	.	.	.	.	.	.	.	.	.	8BnJ)	.	.	.	8r	.	.	.
.	.	.	.	.	.	.	.	.	.	.	.	.	.	.	.	.	.	.	.
=17	=17	=17	=17	=17	=17	=17	=17	=17	=17	=17	=17	=17	=17	=17	=17	=17	=17	=17	=17
*	*	*	*	*	*	*	*	*	*	*grp:B	*grp:B	*	*	*	*	*	*	*	*
!	!	!	!	!	!	!	!	!LO:TX:a:t=immer mit Dmpf.	!	!	!	!	!	!	!	!	!	!	!
8	.	8FF#<LX~	.	2r	.	2r	.	2r	.	4r	.	8e-X~	.	2r	.	2r	.	2r	.
.	.	.	.	.	.	.	.	.	.	.	.	.	.	.	.	.	.	.	.
8	.	(8Gn 8e-X	.	.	.	.	.	.	.	.	.	8r	.	.	.	.	.	.	.
.	.	.	.	.	.	.	.	.	.	.	.	.	.	.	.	.	.	.	.
*clefG2	*	*	*	*	*	*	*	*	*	*	*	*	*	*	*	*	*	*	*
8	.	8dd<n)	.	.	.	.	.	.	.	12r	f	4r	.	.	.	.	.	.	.
*	*	*clefF4	*	*	*	*	*	*	*	*	*	*	*	*	*	*	*	*	*
.	.	.	.	.	.	.	.	.	.	(12e-XL	.	.	.	.	.	.	.	.	.
8	.	8BBn~ 8B-JX	.sf	.	.	.	.	.	.	.	.	.	.	.	.	.	.	.	.
.	.	.	.	.	.	.	.	.	.	12ddnJ	.	.	.	.	.	.	.	.	.
=18	=18	=18	=18	=18	=18	=18	=18	=18	=18	=18	=18	=18	=18	=18	=18	=18	=18	=18	=18
*	*	*	*	*grp:B	*grp:B	*grp:B	*grp:B	*	*	*	*	*	*	*	*	*	*	*	*
*clefF4	*	*	*	*	*	*	*	*	*	*	*	*	*	*	*	*	*	*	*
8r	.	4	.	4r	.	12r	.	12Gn^L	f	12ff#X)	.	2r	.	2r	.	2r	.	2r	.
!	!	!	!	!	!	!LO:TX:t=ohne Dmpf.	!	!	!	!	!	!	!	!	!	!	!	!	!
.	.	.	.	.	.	12r	.	12BBn^	.	12r	.	.	.	.	.	.	.	.	.
8BBLn~	.	.	.f	.	.	.	.	.	.	.	.	.	.	.	.	.	.	.	.
.	.	.	.	.	.	12c~	f	12B-X^J	.	12r	.	.	.	.	.	.	.	.	.
!	!	!	!	!LO:TX:t=ohne Dmpf.	!	!	!	!	!	!	!	!	!	!	!	!	!	!	!
*	*	*clefG2	*	*	*	*	*	*	*	*	*	*	*	*	*	*	*	*	*
8e->X~ 8dd>n	.	8	.	12r	.	(12g#XL	.	4r	.	4r	.	.	.	.	.	.	.	.	.
.	.	.	.	(12eenL	f	12aanJ)	.	.	.	.	.	.	.	.	.	.	.	.	.
8GGn~ 8F#JX	.	8r	.	.	.	.	.	.	.	.	.	.	.	.	.	.	.	.	.
.	.	.	.	12fnJ)	.	12r	.	.	.	.	.	.	.	.	.	.	.	.	.
=19	=19	=19	=19	=19	=19	=19	=19	=19	=19	=19	=19	=19	=19	=19	=19	=19	=19	=19	=19
*	*	*	*	*	*	*	*	*	*	*	*	*	*	*	*	*grp:B	*grp:B	*grp:B	*grp:B
4r	.	8b-X~	.	12cc#X~	.	2r	.	2r	.	2r	.	2r	.	2r	.	6dddn~	f	6r	.
.	.	.	.	12r	.	.	.	.	.	.	.	.	.	.	.	.	.	.	.
.	.	8r	.	.	.	.	.	.	.	.	.	.	.	.	.	.	.	.	.
.	.	.	.	12r	.	.	.	.	.	.	.	.	.	.	.	6ff#X~	.	6r	.
12GG#X~ 12ALn	.	12	.	4r	.	.	.	.	.	.	.	.	.	.	.	.	.	.	.
12f>n~ 12ee>Jn	12	12	.	.	.	.	.	.	.	.	.	.	.	.	.	6fn~	.	6bbb-X~	ff
12r	.	12	.	.	.	.	.	.	.	.	.	.	.	.	.	.	.	.	.
=	=	=	=	=	=	=	=	=	=	=	=	=	=	=	=	=	=	=	=
*-	*-	*-	*-	*-	*-	*-	*-	*-	*-	*-	*-	*-	*-	*-	*-	*-	*-	*-	*-
!!!system-decoration: [(s1,s2,s3)][(s4,s5,s6)][(s7,s8)]{(s9,s10)}
!!!RDF**kern: < = below
!!!RDF**kern: > = above
!!!CDT: 1883/12/03-1945/09/15
!!!CBL: Vienna, Austria
!!!CDL: Mittersill, Austria
!!!CNT: Austrian
!!!AGN: Orchestral; Concerto
!!!MCN: Janowetz, Heinrich
!!!MDT: 1934/09/04
!!!MGN: Prague Symphony Orchestra
!!!MLC: Prague, Czechia
!!!MPD: 1934
!!!MPN:
!!!ODT: 1934
!!!PDT: 1948
!!!excerpt-start-measure: 11
!!!excerpt-end-measure: 19
!!!excerpt-start-time: 0:16
!!!excerpt-end-time: 0:38
!!!excerpt-tempo-beat: [quarter]
!!!excerpt-tempo-rate: [80]
!!!excerpt-meter-type: duple
!!!excerpt-beat-group: G2
!!!excerpt-beat-subgroup: G2
!!!EEV: 2020/01/27
!!!ONB: Converted from MusicXML on 2021/01/08
